src/images/percolator.svg

<?xml version="1.0" encoding="UTF-8"?>
<svg width="75px" height="75px" viewBox="0 0 75 75" version="1.1" xmlns="http://www.w3.org/2000/svg" xmlns:xlink="http://www.w3.org/1999/xlink">
    <!-- Generator: Sketch 41.2 (35397) - http://www.bohemiancoding.com/sketch -->
    <title>Group 8</title>
    <desc>Created with Sketch.</desc>
    <defs>
        <path d="M0,10.4315844 C0,9.32939692 0.896492533,8.43589744 2.00086737,8.43589744 L21.2312809,8.43589744 C22.3363294,8.43589744 23.2321483,9.32334045 23.2321483,10.4315844 L23.2321483,43.0754603 C23.2321483,44.1776478 22.3638213,45.2875967 21.2913476,45.5282968 L13.6150433,46.5935333 C12.5110431,46.6256353 10.7150455,46.6393953 9.61710498,46.5935333 L1.94080068,45.5282968 C0.868926064,45.2758201 0,44.1837043 0,43.0754603 L0,10.4315844 Z" id="path-1"></path>
        <mask id="mask-2" maskContentUnits="userSpaceOnUse" maskUnits="objectBoundingBox" x="0" y="0" width="23.2321483" height="38.1870966" fill="white">
            <use xlink:href="#path-1"></use>
        </mask>
    </defs>
    <g id="Page-1" stroke="none" stroke-width="1" fill="none" fill-rule="evenodd">
        <g id="Landing" transform="translate(-41.000000, -593.000000)">
            <g id="Group-8" transform="translate(41.000000, 593.000000)">
                <g id="Group-24-Copy" fill="#F0F0F0">
                    <circle id="Oval-2-Copy" cx="37.5039298" cy="37.5039298" r="37.5039298"></circle>
                </g>
                <g id="Group-7" transform="translate(24.000000, 14.000000)">
                    <use id="Rectangle-16" stroke="#2B2B2B" mask="url(#mask-2)" stroke-width="4" xlink:href="#path-1"></use>
                    <path d="M3.06524226,5.22718684 C2.75886778,5.38814972 2.48784983,5.62853597 2.33922691,5.89710156 L0.485606107,9.24664402 C0.212321596,9.74047645 0,10.5721683 0,11.1248303 L0,13.6324181 C0,14.1842809 0.444282599,14.6331011 0.99233296,14.6331011 L28.8327222,14.6331011 C29.3802988,14.6331011 29.8250552,14.1850801 29.8250552,13.6324181 L29.8250552,11.1248303 C29.8250552,10.5729674 29.4391125,9.90085387 28.963028,9.62540751 L21.864325,5.51833808 C21.3814007,5.2389344 20.5531536,5.01959832 19.9991061,5.01959832 L15.503197,5.01959832 L15.4741866,3.04176497 C15.4741866,3.04176497 19.8248803,1.33197287 22.8958173,1.33197287 C23.0707427,1.06359317 23.0364216,0.284042553 22.8570898,0 C7.07359589,0 3.01745136,5.22730779 3.01745136,5.22730779 L3.06524226,5.22718684 Z" id="Combined-Shape" fill="#2B2B2B"></path>
                </g>
            </g>
        </g>
    </g>
</svg>

<svg width="75" height="75" viewBox="0 0 75 75" xmlns="http://www.w3.org/2000/svg" xmlns:xlink="http://www.w3.org/1999/xlink"><title>Group 8</title><defs><path d="M0 10.432c0-1.103.896-1.996 2-1.996h19.231c1.105 0 2.001.887 2.001 1.996v32.643c0 1.103-.868 2.213-1.94 2.453l-7.677 1.066c-1.104.032-2.9.045-3.998 0l-7.676-1.066C.869 45.276 0 44.184 0 43.075V10.432z" id="a"/><mask id="b" x="0" y="0" width="23.232" height="38.187" fill="#fff"><use xlink:href="#a"/></mask></defs><g fill="none" fill-rule="evenodd"><circle cx="37.504" cy="37.504" r="37.504" fill="#FF5000"/><g transform="translate(24 14)"><use stroke="#FFF" mask="url(#b)" stroke-width="4" xlink:href="#a"/><path d="M3.065 5.227c-.306.161-.577.402-.726.67L.486 9.247C.212 9.74 0 10.572 0 11.125v2.507c0 .552.444 1.001.992 1.001h27.84a.997.997 0 0 0 .993-1v-2.508c0-.552-.386-1.224-.862-1.5l-7.099-4.107c-.483-.28-1.31-.498-1.865-.498h-4.496l-.029-1.978s4.35-1.71 7.422-1.71c.175-.268.14-1.048-.039-1.332C7.074 0 3.017 5.227 3.017 5.227h.048z" fill="#FFF"/></g></g></svg>
